X: 2374
T: BRYNE'S FAVORITE HORNPIPE
%R: hornpipe, reel
B: James Kerr "Merry Melodies" v.2 p.41 #374
Z: 2016 John Chambers <jc:trillian.mit.edu>
M: C
L: 1/8
K: D
(udc) |:\
dAFA DFAd | fdAd FAdf |\
[1 gfge fefd | edcB ABcA :|\
[2 gabg face | d2d2d2 |]
(AG) |:\
FAdA FAdA | GBdB GBdB |\
[1 Acec Acec | dfaf gecA :|\
[2 Aceg face | d2d2d2 |]
